X:1
T:Banks of Don, The
T:Banks of Don, The
T:Alexander Walker
C:Alexander Walker
L:1/8
M:4/4
K:E
V:1 treble 
V:1
 F | B>cB>G B>ce>g | f>eg>e (c2 c)A | B>cB>G B>ce>g | B<GF>G (E2 E) :| g | b>ge>f c>eB>G | %7
 A>fG>e (F2 F>)g | b>ge>f c>eB>G | A>cB>G (E2 E>)g | b>ge>f c>eB>G | A>fG>e F>B,D<B, | %12
 E>GF>A G>BA>c | B<eg>e (e2 e) || %14

